dsigndev/static/dsigndev/images/logo-dev.svg

<svg enable-background="new 0 0 100 70" viewBox="0 0 100 70" xmlns="http://www.w3.org/2000/svg"><g fill="#fff"><path d="m-1.3 0h12.7c14 0 25 11.6 25 25.6 0 14.3-11.3 25.6-25 25.6h-12.7zm12.7 41.3c8.3 0 15.3-6.8 15.3-15.4s-6.7-15.7-15.3-15.7h-2.7v31.1z"/><path d="m37.3 69.7v-4.4c.3.3 1 .3 1.7.3 4.7 0 8-3.4 8-8.2 0-3.4-2-5.8-4-8.2-2.3-2.7-4.7-5.8-4.7-10.6 0-7.2 5.3-12 11.7-12h.3v4.1h-.3c-4.3 0-7.7 3.1-7.7 7.9 0 3.1 1.7 5.5 3.7 7.9 2.3 2.7 4.7 6.1 4.7 10.9 0 7.5-5 12.6-12.3 12.6-.1 0-.7 0-1.1-.3z"/><path d="m56.7 25.6h5.3c5.7 0 10.3 4.8 10.3 10.6s-4.7 10.6-10.3 10.6h-5.3zm5.3 16.7c3.3 0 6.3-2.7 6.3-6.5 0-3.4-2.7-6.5-6.3-6.5h-1v12.7h1z"/><path d="m81.3 47.1c-4 0-7.3-3.4-7.3-7.5s3.3-7.5 7.3-7.5 7.3 3.4 7.3 7.5v1.4h-10.6c.7 1.4 1.7 2 3.3 2 1 0 2-.3 2.7-1l2.7 2.7c-1.4 1.4-3.4 2.4-5.4 2.4zm3.3-9.2c-.7-1.4-1.7-2-3.3-2-1.3 0-2.7 1-3.3 2z"/><path d="m88.6 32.4h4.4l2 5.1 2-5.1h4.3l-6.3 15z"/></g></svg>

<?xml version="1.0" encoding="utf-8"?>
<!-- Generator: Adobe Illustrator 22.1.0, SVG Export Plug-In . SVG Version: 6.00 Build 0)  -->
<svg version="1.1" id="Calque_1" xmlns="http://www.w3.org/2000/svg" xmlns:xlink="http://www.w3.org/1999/xlink" x="0px" y="0px"
	 viewBox="0 0 100 70" style="enable-background:new 0 0 100 70;" xml:space="preserve">
<style type="text/css">
	.st0{fill:#FFFFFF;}
</style>
<g>
	<g>
		<path class="st0" d="M-1.3,0h12.7c14,0,25,11.6,25,25.6c0,14.3-11.3,25.6-25,25.6H-1.3V0z M11.4,41.3c8.3,0,15.3-6.8,15.3-15.4
			S20,10.2,11.4,10.2H8.7v31.1H11.4z"/>
	</g>
	<g>
		<path class="st0" d="M37.3,69.7v-4.4c0.3,0.3,1,0.3,1.7,0.3c4.7,0,8-3.4,8-8.2c0-3.4-2-5.8-4-8.2c-2.3-2.7-4.7-5.8-4.7-10.6
			c0-7.2,5.3-12,11.7-12h0.3v4.1H50c-4.3,0-7.7,3.1-7.7,7.9c0,3.1,1.7,5.5,3.7,7.9c2.3,2.7,4.7,6.1,4.7,10.9c0,7.5-5,12.6-12.3,12.6
			C38.3,70,37.7,70,37.3,69.7z"/>
	</g>
	<g>
		<path class="st0" d="M56.7,25.6H62c5.7,0,10.3,4.8,10.3,10.6S67.6,46.8,62,46.8h-5.3V25.6z M62,42.3c3.3,0,6.3-2.7,6.3-6.5
			c0-3.4-2.7-6.5-6.3-6.5h-1V42h1V42.3z"/>
		<path class="st0" d="M81.3,47.1c-4,0-7.3-3.4-7.3-7.5s3.3-7.5,7.3-7.5c4,0,7.3,3.4,7.3,7.5c0,0.7,0,1,0,1.4H78
			c0.7,1.4,1.7,2,3.3,2c1,0,2-0.3,2.7-1l2.7,2.7C85.3,46.1,83.3,47.1,81.3,47.1z M84.6,37.9c-0.7-1.4-1.7-2-3.3-2
			c-1.3,0-2.7,1-3.3,2H84.6z"/>
		<path class="st0" d="M88.6,32.4H93l2,5.1l2-5.1h4.3l-6.3,15L88.6,32.4z"/>
	</g>
</g>
</svg>
